X:1
T:Minnelied
T:Minnelied
T:Max Reger Op. 83,7
T:Altdeutch
C:Max Reger Op. 83,7
Z:Altdeutch
%%score [ 1 2 3 4 ]
L:1/8
Q:1/8=134
M:6/8
K:F
V:1 treble-8 nm="T1"
V:2 treble-8 nm="T2"
V:3 bass nm="B1"
V:4 bass nm="B2"
V:1
!p!"^Etwas lebhaft (doch nicht zu schnell!)"!<(! (c2 d)!<)! f2 a | (B>!>(!cd) d2!>)!!<(! g | %2
w: Herz- * chen, mein|Schätz- * * chen, bist|
"^sempre dolce" (f>!<)!gf b) g!>(! _e!>)! |!p! d3 d!p! c d | f3/2 ^c/ d d e ^f | %5
w: tau- * * * send- mal|mein, laß dir kein'|an- dern, kein' an- dern nicht|
!f!"^poco rit." (a2 g!>(! d2)!>)!!p! e | e3"^a tempo" _e!p! =f g | g3/2 d/ _e =e ^f g | %8
w: Lie- * * ber|sein. Kommt dir gleich|ei- ner, ist schö- ner als|
!f! ^g3!p!!<(! a =f =g!<)! |!>(! a2!>)! a!<(! f d e!<)! |"^sempre dolce" f3 e2"^rit." d | %11
w: ich, Herz- chen, mein|Scätz- chen, Herz- chen, mein|Schätz- chen, ge-|
!>(! d3/2 d/!>)!!pp! ^c d3 |!p!"^a tempo"!<(! =c2 d f2!<)! a | (B>c!>(!d)!>)! d2!<(! g!<)! | %14
w: den- ke an mich.|Herz- * chen, mein|Schätz- * * chen, bist|
 (f>"^sempre dolce"gf b) g!>(! _e!>)! |!p! d3 d!p! c d | g2 g e d e | a3/2 d/ d!f! b2 g | %18
w: tau- * * * send- mal|mein, laß dir kein'|an- dern, laß dir kein'|an- dern nicht lie- ber|
!>(! =f2 a"^poco rit." =d2 e | f3-!>)!!p! f2 z |"^a tempo" A2!p! A!<(! d2 d | =B3/2 ^G/ B e2 e | %22
w: sein, nicht lie- ber|sein. _|Kei- ne, kei- ne|Ro- se so lieb- lich|
 ^e2 ^f!<)!!f! f2 z | z2!p! g g2 =f | e3/2 g/ e e2 d | d3!pp!!<(! f3!<)! | e3 d2 d | %27
w: blü- hen kann,|Als wenn zwei|Lieb- ste bei- sam- men|stahn, zwei|Lieb- ste bei-|
"^poco rit." c3!>(! A3!>)! | =B3-!pp! B z!f!"^a tempo" d |"^cresc." d3/2 e/ f f2 c | c3/2 d/ e e3 | %31
w: sam- men|stahn, _ drum|red' ich es frei und|blei- be da- bei:|
!ff! a3"^sempre rit" ^f2 g |!>(! g3!>)! !breath!d2"^Meno mosso" a |!p! (g2 f- (f!>(![fa])) e!>)! | %34
w: daß treu- e|Lie- be das|Be- * * * ste|
 f3-!pp! !fermata!f2 z |] %35
w: sei. _|
V:2
!p!!<(! A3!<)! A2 A | (G>!>(!AB) B2!>)!!<(! B |"^sempre dolce" B3-!<)! B d!>(! c!>)! | %3
w: Herz- chen, mein|Schätz- * * chen, bist|tau- * send- mal|
!p! A3 =B!p! A B | (=B3 A) ^c d |!f!"^poco rit." (^f2 e!>(! =c2)!>)!!p! =B | %6
w: mein, laß dir kein'|an- an- dern nicht|Lie- * * ber|
 c3"^a tempo" _B!p! d _e | _e3/2 =B/ c ^c ^d =e |!f! =f3!p!!<(! f =d e!<)! | %9
w: sein. Kommt dir gleich|ei- ner, ist schö- ner als|ich, Herz- chen, mein|
!>(! e2!>)! e!<(! d =B ^c!<)! |"^sempre dolce" (d2 =c) c2"^rit." A |!>(! A3/2 A/!>)!!pp! A A3 | %12
w: Scätz- chen, Herz- chen, mein|Schätz- * chen, ge-|den- ke an mich.|
!p!"^a tempo"!<(! A3 A2!<)! A | (G>A!>(!B)!>)! B2!<(! B!<)! |"^sempre dolce" B3- B d!>(! c!>)! | %15
w: Herz- chen, mein|Schätz- * * chen, bist|tau- * send- mal|
!p! A3 =B!p! A B | =B2 B c B c | c3/2 c/ c!f! _B2 d |!>(! (d>_d) c"^poco rit." =B2 _B | %19
w: mein, laß dir kein'|an- dern, laß dir kein'|an- dern nicht lie- ber|sein, * nicht lie- ber|
 =A3-!>)!!p! A2 z |"^a tempo" A2 A!p!!<(! A2 A | ^G3/2 E/ (G/=B/) B2 B | =B2 B!<)!!f! c2 z | %23
w: sein. _|Kei- ne, kei- ne|Ro- se so _ lieb- lich|blü- hen kann,|
 z2!p! =e e2 d | c3/2 c/ c _B2 B | B3!pp!!<(! d3!<)! | d3 B2 A |"^poco rit." G3!>(! ^F3!>)! | %28
w: Als wenn zwei|Lieb- ste bei- sam- men|stahn, zwei|Lieb- ste bei-|sam- men|
 G3-!pp! G z!f!"^a tempo" A |"^cresc." _B3/2 B/ B c2 A | A3/2 A/ A =B3 |!ff! e3"^sempre rit" d2 d | %32
w: stahn, _ drum|red' ich es frei und|blei- be da- bei:|daß treu- e|
!>(! e3!>)! !breath!A2"^Meno mosso" =f |!p! e2 d- d2 B | A3-!pp! !fermata!A2 z |] %35
w: Lie- be das|Be- * * ste|sei. _|
V:3
!p!!<(! (C,2 =B,,)!<)! C,2 ^C, | (D,2 G,) D,2!<(! _E, | %2
w: Herz- * chen, mein|Schätz- * chen, bist|
"^sempre dolce" (D,3!<)! _E,) B,!>(! G,!>)! |!p! ^F,3 =F,3/2!p! F,/ F, | D,3/2 E,/ F, ^F, =G, A, | %5
w: tau- * send- mal|mein, laß dir kein'|an- dern, kein' an- dern nicht|
!f!"^poco rit." (C2 =B,!>(! A,2)!>)!!p! G, | G,3"^a tempo" G,!p! _A, _B, | %7
w: Lie- * * ber|sein. Kommt dir gleich|
 =A,3/2 _A,/ G, G, =A, =B, |!f! =B,3!p!!<(! C B, _B,!<)! |!>(! A,2!>)! A,!<(! A, G, G,!<)! | %10
w: ei- ner, ist schö- ner als|ich, Herz- chen, mein|Scätz- chen, Herz- chen, mein|
"^sempre dolce" A,3 G,2"^rit." F, |!>(! E,3/2 ^F,/!>)!!pp! G, =F,3 | %12
w: Schätz- chen, ge-|den- ke an mich.|
!p!"^a tempo"!<(! (C,2 =B,,) C,2!<)! ^C, | (D,2!>(! G,)!>)! D,2!<(! _E,!<)! | %14
w: Herz- * chen, mein|Schätz- * chen, bist|
"^sempre dolce" (D,3 _E,) B,!>(! G,!>)! |!p! ^F,3 =F,3/2!p! F,/ F, | E,2 E, E, F, E, | %17
w: tau- * send- mal|mein, laß dir kein'|an- dern, laß dir kein'|
 F,3/2 F,/ ^F,!f! G,2 G, |!>(! A,2 A,"^poco rit." (A,>_A,) G, | =F,3-!>)!!p! F,2 z | %20
w: an- dern nicht lie- ber|sein, nicht lie- * ber|sein. _|
"^a tempo" ^F,2 F,!p!!<(! F,2 F, | E,3/2 E,/ (E,/^G,/) G,2 G, | (^G,>A,) A,!<)!!f! A,2!p! =B, | %23
w: Kei- ne, kei- ne|Ro- se so _ lieb- lich|blü- * hen kann, als|
 =B,2 B, (B,2 =G,) | G,2 G, G,2 F, | F,3!pp!!<(! A,3!<)! | G,3 F,2 F, | %27
w: wenn zwei Lieb- *|ste bei- sam- men|stahn, zwei|Lieb- ste bei-|
"^poco rit." E,3!>(! D,3!>)! | D,3-!pp! D, z!f!"^a tempo" F, |"^cresc." F,3/2 F,/ F, A,2 F, | %30
w: sam- men|stahn, _ drum|red' ich es frei und|
 E,3/2 E,/ E, G,3 |!ff! C3"^sempre rit" A,2 =B, |!>(! C3!>)! !breath!F,2"^Meno mosso" C | %33
w: blei- be da- bei:|daß treu- e|Lie- be das|
!p! (_B,3 A,2) G, | F,3-!pp! !fermata!F,2 z |] %35
w: Be- * ste|sei. _|
V:4
!p!!<(! F,,3!<)! F,,2 F,, | F,,3 (F,,^F,,)!<(! G,, | %2
w: Herz- chen, mein|Schätz- chen, * bist|
"^sempre dolce" (_A,,3!<)! G,,) B,,!>(! C,!>)! |!p! D,3!p! G,,3 | ^G,,2 G,, A,, E, D, | %5
w: tau- * send- mal|mein, laß|dir kein' an- dern nicht|
!f!"^poco rit." (^D,2 E,!>(! =F,2)!>)!!p! G, | C,3"^a tempo" _E,3/2!p! E,/ E, | %7
w: Lie- * * ber|sein. Kommt dir gleich|
 C,3/2 F,/ _E, =A,, ^F, =E, |!f! ^C,3!p!!<(! =C, C, C,!<)! |!>(! C,2!>)! C,!<(! D, G, E,!<)! | %10
w: ei- ner, ist schö- ner als|ich, Herz- chen, mein|Scätz- chen, Herz- chen, mein|
"^sempre dolce" (D,2 A,,) C,2"^rit." D, |!>(! A,,3/2 A,,/!>)!!pp! A,, [D,,A,,]3 | %12
w: Schätz- * chen, ge-|den- ke an mich.|
!p!"^a tempo"!<(! F,,3 F,,2!<)! F,, | F,,3!>(! (F,,^F,,)!>)!!<(! G,,!<)! | %14
w: Herz- chen, mein|Schätz- chen, _ bist|
"^sempre dolce" (_A,,3 G,,) B,,!>(! C,!>)! |!p! D,3!p! G,,3 | G,,2 G,, A,,3/2 A,,/ A,, | %17
w: tau- * send- mal|mein, laß|dir kein' an- dern, kein'|
 A,,3/2 A,,/ D,!f! [G,,D,]2 B,, |!>(! D,2 F,,"^poco rit." G,,2 C, | [F,,C,]3-!>)!!p! [F,,C,]2 z | %20
w: an- dern nicht lie- ber|sein, nicht lie- ber|sein. _|
"^a tempo" D,2 D,!p!!<(! =B,,2 B,, | E,3/2 =B,,/ E, ^C,2 C, | D,2 ^D,!<)!!f! D,2!p! =B,, | %23
w: Kei- ne, kei- ne|Ro- se so lieb- lich|blü- hen kann, als|
 =B,,2 B,, (G,,>A,,B,,) | (C,>E,) C, (G,,>A,,) _B,, | B,,3!pp!!<(! F,,3!<)! | G,,3 B,,2 =B,, | %27
w: wenn zwei Lieb- * *|ste * bei- sam- * men|stahn, zwei|Lieb- ste bei-|
"^poco rit." C,3!>(! D,3!>)! | G,,3-!pp! G,, z!f!"^a tempo" D, |"^cresc." B,,3/2 C,/ D, F,2 F,, | %30
w: sam- men|stahn, _ drum|red' ich es frei und|
 A,,3/2 =B,,/ C, E,3 |!ff! C,3"^sempre rit" D,2 G,, |!>(! C,3!>)! !breath!D,2"^Meno mosso" F,, | %33
w: blei- be da- bei:|daß treu- e|Lie- be das|
!p! (G,,>A,,B,, =B,,2) C, | [F,,C,]3-!pp! !fermata![F,,C,]2 z |] %35
w: Be- * * * ste|sei. _|

